fastlane/metadata/android/en-US/images/buttons/fdroid.svg

<!--
  - ImageToolbox is an image editor for android
  - Copyright (c) 2024 T8RIN (Malik Mukhametzyanov)
  -
  - Licensed under the Apache License, Version 2.0 (the "License");
  - you may not use this file except in compliance with the License.
  -
  - Unless required by applicable law or agreed to in writing, software
  - distributed under the License is distributed on an "AS IS" BASIS,
  - WITHOUT WARRANTIES OR CONDITIONS OF ANY KIND, either express or implied.
  - See the License for the specific language governing permissions and
  - limitations under the License.
  -
  - You should have received a copy of the Apache License
  - along with this program.  If not, see <http://www.apache.org/licenses/LICENSE-2.0>.
  -->

<svg fill="none" height="40" viewBox="0 0 131 40" width="131" xmlns="http://www.w3.org/2000/svg">
    <g clip-path="url(#clip0_250_198)">
        <path
            d="M111 0H20C8.9543 0 0 8.9543 0 20C0 31.0457 8.9543 40 20 40H111C122.046 40 131 31.0457 131 20C131 8.9543 122.046 0 111 0Z"
            fill="#8E4D31" />
        <path clip-rule="evenodd"
            d="M19.8323 11.1428C19.6419 10.9524 19.3332 10.9524 19.1428 11.1428C18.9524 11.3332 18.9524 11.6419 19.1428 11.8323L20.8511 13.5406C20.7849 13.6966 20.7483 13.8682 20.7483 14.0484V16.6487C20.7483 17.3667 21.3303 17.9488 22.0484 17.9488H34.3997C35.1178 17.9488 35.6999 17.3667 35.6999 16.6487V14.0484C35.6999 13.8688 35.6634 13.6977 35.5976 13.5421L37.3075 11.8323C37.4979 11.6419 37.4979 11.3332 37.3075 11.1428C37.1171 10.9524 36.8083 10.9524 36.6179 11.1428L34.909 12.8518C34.7526 12.7851 34.5805 12.7483 34.3997 12.7483H22.0484C21.8682 12.7483 21.6966 12.7849 21.5406 12.8511L19.8323 11.1428ZM25.6238 15.3485C25.6238 16.0666 25.0417 16.6487 24.3236 16.6487C23.6056 16.6487 23.0235 16.0666 23.0235 15.3485C23.0235 14.6305 23.6056 14.0484 24.3236 14.0484C25.0417 14.0484 25.6238 14.6305 25.6238 15.3485ZM33.4246 15.3485C33.4246 16.0666 32.8425 16.6487 32.1245 16.6487C31.4064 16.6487 30.8243 16.0666 30.8243 15.3485C30.8243 14.6305 31.4064 14.0484 32.1245 14.0484C32.8425 14.0484 33.4246 14.6305 33.4246 15.3485Z"
            fill="#ffffff" fill-rule="evenodd" />
        <path clip-rule="evenodd"
            d="M31.4753 23.7991C31.4753 25.5943 30.02 27.0495 28.2249 27.0495C26.4298 27.0495 24.9746 25.5943 24.9746 23.7991C24.9746 22.004 26.4298 20.5488 28.2249 20.5488C30.02 20.5488 31.4753 22.004 31.4753 23.7991ZM28.2249 26.0744C29.4815 26.0744 30.5002 25.0557 30.5002 23.7991C30.5002 22.5426 29.4815 21.5239 28.2249 21.5239C27.1942 21.5239 26.3236 22.2092 26.0439 23.1491H27.0987C27.3235 22.7605 27.7437 22.499 28.2249 22.499C28.943 22.499 29.5251 23.0811 29.5251 23.7991C29.5251 24.5172 28.943 25.0993 28.2249 25.0993C27.7437 25.0993 27.3235 24.8378 27.0987 24.4492H26.0439C26.3236 25.389 27.1942 26.0744 28.2249 26.0744Z"
            fill="#ffffff" fill-rule="evenodd" />
        <path clip-rule="evenodd" d="M20.748 27.6996V19.8987C20.748 19.1807 21.33 18.5986 22.0481 18.5986H34.3994C35.1175 18.5986 35.6996 19.1807 35.6996 19.8987V27.6996C35.6996 28.4176 35.1175 28.9997 34.3994 28.9997H22.0481C21.33 28.9997 20.748 28.4176 20.748 27.6996ZM32.1252 23.7991C32.1252 25.9533 30.379 27.6996 28.2248 27.6996C26.0707 27.6996 24.3244 25.9533 24.3244 23.7991C24.3244 21.645 26.0707 19.8987 28.2248 19.8987C30.379 19.8987 32.1252 21.645 32.1252 23.7991Z"
            fill="#ffffff" fill-rule="evenodd" />
        <path d="M51.1197 20.0957H56.8957V21.4717H51.1197V20.0957ZM51.2797 25.9997H49.6797V14.7997H57.5837V16.1917H51.2797V25.9997ZM58.568 22.2717V20.9437H62.872V22.2717H58.568ZM64.961 25.9997V14.7997H69.681C70.8756 14.7997 71.9263 15.0344 72.833 15.5037C73.7503 15.973 74.4596 16.629 74.961 17.4717C75.473 18.3144 75.729 19.2904 75.729 20.3997C75.729 21.509 75.473 22.485 74.961 23.3277C74.4596 24.1704 73.7503 24.8264 72.833 25.2957C71.9263 25.765 70.8756 25.9997 69.681 25.9997H64.961ZM66.561 24.6077H69.585C70.513 24.6077 71.313 24.4317 71.985 24.0797C72.6676 23.7277 73.1956 23.237 73.569 22.6077C73.9423 21.9677 74.129 21.2317 74.129 20.3997C74.129 19.557 73.9423 18.821 73.569 18.1917C73.1956 17.5624 72.6676 17.0717 71.985 16.7197C71.313 16.3677 70.513 16.1917 69.585 16.1917H66.561V24.6077ZM77.4557 25.9997V17.5197H78.9277V19.8237L78.7837 19.2477C79.0184 18.661 79.413 18.213 79.9677 17.9037C80.5224 17.5944 81.205 17.4397 82.0157 17.4397V18.9277C81.9517 18.917 81.8877 18.9117 81.8237 18.9117C81.7704 18.9117 81.717 18.9117 81.6637 18.9117C80.8424 18.9117 80.1917 19.157 79.7117 19.6477C79.2317 20.1384 78.9917 20.8477 78.9917 21.7757V25.9997H77.4557ZM86.9627 26.0957C86.1094 26.0957 85.352 25.909 84.6907 25.5357C84.0294 25.1624 83.5067 24.6504 83.1227 23.9997C82.7387 23.3384 82.5467 22.5917 82.5467 21.7597C82.5467 20.917 82.7387 20.1704 83.1227 19.5197C83.5067 18.869 84.0294 18.3624 84.6907 17.9997C85.352 17.6264 86.1094 17.4397 86.9627 17.4397C87.8054 17.4397 88.5574 17.6264 89.2187 17.9997C89.8907 18.3624 90.4134 18.869 90.7867 19.5197C91.1707 20.1597 91.3627 20.9064 91.3627 21.7597C91.3627 22.6024 91.1707 23.349 90.7867 23.9997C90.4134 24.6504 89.8907 25.1624 89.2187 25.5357C88.5574 25.909 87.8054 26.0957 86.9627 26.0957ZM86.9627 24.7517C87.5067 24.7517 87.992 24.629 88.4187 24.3837C88.856 24.1384 89.1974 23.7917 89.4427 23.3437C89.688 22.885 89.8107 22.357 89.8107 21.7597C89.8107 21.1517 89.688 20.629 89.4427 20.1917C89.1974 19.7437 88.856 19.397 88.4187 19.1517C87.992 18.9064 87.5067 18.7837 86.9627 18.7837C86.4187 18.7837 85.9334 18.9064 85.5067 19.1517C85.08 19.397 84.7387 19.7437 84.4827 20.1917C84.2267 20.629 84.0987 21.1517 84.0987 21.7597C84.0987 22.357 84.2267 22.885 84.4827 23.3437C84.7387 23.7917 85.08 24.1384 85.5067 24.3837C85.9334 24.629 86.4187 24.7517 86.9627 24.7517ZM92.987 25.9997V17.5197H94.523V25.9997H92.987ZM93.755 15.8877C93.4563 15.8877 93.2056 15.7917 93.003 15.5997C92.811 15.4077 92.715 15.173 92.715 14.8957C92.715 14.6077 92.811 14.3677 93.003 14.1757C93.2056 13.9837 93.4563 13.8877 93.755 13.8877C94.0536 13.8877 94.299 13.9837 94.491 14.1757C94.6936 14.357 94.795 14.5864 94.795 14.8637C94.795 15.1517 94.699 15.397 94.507 15.5997C94.315 15.7917 94.0643 15.8877 93.755 15.8877ZM100.46 26.0957C99.6384 26.0957 98.9024 25.9144 98.2517 25.5517C97.6117 25.189 97.105 24.6824 96.7317 24.0317C96.3584 23.381 96.1717 22.6237 96.1717 21.7597C96.1717 20.8957 96.3584 20.1437 96.7317 19.5037C97.105 18.853 97.6117 18.3464 98.2517 17.9837C98.9024 17.621 99.6384 17.4397 100.46 17.4397C101.175 17.4397 101.82 17.5997 102.396 17.9197C102.972 18.2397 103.431 18.7197 103.772 19.3597C104.124 19.9997 104.3 20.7997 104.3 21.7597C104.3 22.7197 104.129 23.5197 103.788 24.1597C103.457 24.7997 103.004 25.285 102.428 25.6157C101.852 25.9357 101.196 26.0957 100.46 26.0957ZM100.588 24.7517C101.121 24.7517 101.601 24.629 102.028 24.3837C102.465 24.1384 102.807 23.7917 103.052 23.3437C103.308 22.885 103.436 22.357 103.436 21.7597C103.436 21.1517 103.308 20.629 103.052 20.1917C102.807 19.7437 102.465 19.397 102.028 19.1517C101.601 18.9064 101.121 18.7837 100.588 18.7837C100.044 18.7837 99.5584 18.9064 99.1317 19.1517C98.705 19.397 98.3637 19.7437 98.1077 20.1917C97.8517 20.629 97.7237 21.1517 97.7237 21.7597C97.7237 22.357 97.8517 22.885 98.1077 23.3437C98.3637 23.7917 98.705 24.1384 99.1317 24.3837C99.5584 24.629 100.044 24.7517 100.588 24.7517ZM103.484 25.9997V23.7117L103.58 21.7437L103.42 19.7757V14.1277H104.956V25.9997H103.484Z"
            fill="#ffffff" />
    </g>
    <defs>
        <clipPath id="clip0_250_198">
            <rect fill="white" height="40" width="131" />
        </clipPath>
    </defs>
</svg>

<svg xmlns="http://www.w3.org/2000/svg" viewBox="0 0 131 40"><defs><style>.cls-1{fill:none;}.cls-2{fill:#8e4e31;}.cls-3,.cls-4{fill:#fff;}.cls-3{fill-rule:evenodd;}.cls-4{font-size:16px;font-family:MyanmarText-Bold, Myanmar Text;font-weight:700;}</style></defs><g id="Layer_2" data-name="Layer 2"><g id="Layer_1-2" data-name="Layer 1"><rect class="cls-1" width="131" height="40"/><path class="cls-2" d="M111,0H20a20,20,0,0,0,0,40h91a20,20,0,0,0,0-40Z"/><path class="cls-3" d="M19.83,11.14a.49.49,0,1,0-.69.69l1.71,1.71a1.25,1.25,0,0,0-.1.51v2.6a1.3,1.3,0,0,0,1.3,1.3H34.4a1.3,1.3,0,0,0,1.3-1.3v-2.6a1.45,1.45,0,0,0-.1-.51l1.71-1.71a.49.49,0,1,0-.69-.69l-1.71,1.71a1.45,1.45,0,0,0-.51-.1H22.05a1.25,1.25,0,0,0-.51.1Zm5.79,4.21a1.3,1.3,0,1,1-1.3-1.3A1.3,1.3,0,0,1,25.62,15.35Zm7.8,0a1.3,1.3,0,1,1-1.3-1.3A1.3,1.3,0,0,1,33.42,15.35Z"/><path class="cls-3" d="M31.48,23.8a3.26,3.26,0,1,1-3.26-3.25A3.26,3.26,0,0,1,31.48,23.8Zm-3.26,2.27A2.28,2.28,0,1,0,26,23.15H27.1a1.28,1.28,0,0,1,1.12-.65,1.3,1.3,0,1,1,0,2.6,1.28,1.28,0,0,1-1.12-.65H26A2.27,2.27,0,0,0,28.22,26.07Z"/><path class="cls-3" d="M20.75,27.7V19.9a1.3,1.3,0,0,1,1.3-1.3H34.4a1.3,1.3,0,0,1,1.3,1.3v7.8A1.3,1.3,0,0,1,34.4,29H22.05A1.3,1.3,0,0,1,20.75,27.7Zm11.38-3.9a3.91,3.91,0,1,1-3.91-3.9A3.91,3.91,0,0,1,32.13,23.8Z"/><text class="cls-4" transform="translate(48.25 25.58)">F-Droid</text></g></g></svg>
